actions/symbolic/image-denoise-symbolic.svg

<?xml version="1.0" encoding="UTF-8" standalone="no"?>
<svg
   xmlns:dc="http://purl.org/dc/elements/1.1/"
   xmlns:cc="http://creativecommons.org/ns#"
   xmlns:rdf="http://www.w3.org/1999/02/22-rdf-syntax-ns#"
   xmlns:svg="http://www.w3.org/2000/svg"
   xmlns="http://www.w3.org/2000/svg"
   xmlns:sodipodi="http://sodipodi.sourceforge.net/DTD/sodipodi-0.dtd"
   xmlns:inkscape="http://www.inkscape.org/namespaces/inkscape"
   viewBox="0 0 16 16"
   id="svg3309"
   version="1.1"
   inkscape:version="0.91 r13725"
   sodipodi:docname="image-denoise-symbolic.svg">
  <metadata
     id="metadata3317">
    <rdf:RDF>
      <cc:Work
         rdf:about="">
        <dc:format>image/svg+xml</dc:format>
        <dc:type
           rdf:resource="http://purl.org/dc/dcmitype/StillImage" />
      </cc:Work>
    </rdf:RDF>
  </metadata>
  <sodipodi:namedview
     pagecolor="#ffffff"
     bordercolor="#666666"
     borderopacity="1"
     objecttolerance="10"
     gridtolerance="10"
     guidetolerance="10"
     inkscape:pageopacity="0"
     inkscape:pageshadow="2"
     inkscape:window-width="640"
     inkscape:window-height="480"
     id="namedview3315"
     showgrid="false"
     inkscape:zoom="41.1875"
     inkscape:cx="3.6783005"
     inkscape:cy="8"
     inkscape:current-layer="svg3309" />
  <defs
     id="defs3051">
    <style
       type="text/css"
       id="current-color-scheme">
      .ColorScheme-Text {
        color:#bebebe;
      }
      </style>
  </defs>
  <path
     style="color:#bebebe;fill:currentColor;fill-opacity:1;stroke:none"
     class="ColorScheme-Text"
     d="m 2,2 0,1.7142857 1.7142857,0 1.7142857,0 0,1.7142857 1.7142857,0 0,-1.7142857 L 7.1428571,2 5.4285714,2 3.7142857,2 2,2 Z m 5.1428571,3.4285714 0,1.7142857 1.7142858,0 1.7142861,0 0,-1.7142857 -1.7142861,0 -1.7142858,0 z m 3.4285719,0 1.714285,0 0,-1.7142857 -1.714285,0 0,1.7142857 z m 0,-1.7142857 0,-1.7142857 -1.7142861,0 0,1.7142857 1.7142861,0 z m -3.4285719,3.4285714 -1.7142857,0 0,1.7142858 1.7142857,0 0,-1.7142858 z m -1.7142857,1.7142858 -1.7142857,0 0,1.7142861 1.7142857,0 0,-1.7142861 z m -1.7142857,0 0,-1.7142858 -1.7142857,0 0,1.7142858 1.7142857,0 z m 0,-1.7142858 1.7142857,0 0,-1.7142857 -1.7142857,0 0,1.7142857 z m 6.8571433,1.7142858 0,1.7142861 1.714285,0 0,-1.7142861 -1.714285,0 z m 1.714285,1.7142861 0,1.714285 0,1.714286 L 14,14 l 0,-1.714286 0,-1.714285 -1.714286,0 z m -5.1428569,0 0,1.714285 1.7142858,0 0,-1.714285 -1.7142858,0 z m 1.7142858,1.714285 0,1.714286 1.7142861,0 0,-1.714286 -1.7142861,0 z m -5.1428572,0 0,1.714286 1.7142857,0 0,-1.714286 -1.7142857,0 z"
     id="path3313"
     inkscape:connector-curvature="0" />
</svg>

<svg xmlns="http://www.w3.org/2000/svg" viewBox="0 0 16 16">
  <path fill="#bebebe" d="M2 2v1.714h3.429V5.43h1.714V2zm5.143 3.429v1.714h3.428V5.429zm3.428 0h1.715V3.714H10.57V5.43zm0-1.715V2H8.857v1.714zM7.143 7.143H5.429v1.714h1.714zM5.429 8.857H3.714v1.714H5.43V8.857zm-1.715 0V7.143H2v1.714zm0-1.714H5.43V5.429H3.714zm6.857 1.714v1.714h1.715V8.857H10.57zm1.715 1.714V14H14v-3.429zm-5.143 0v1.715h1.714V10.57H7.143zm1.714 1.715V14h1.714v-1.714zm-5.143 0V14H5.43v-1.714z"/>
</svg>
